packages/core/src/svgs/dpay.svg

<svg width="24" height="24" viewBox="0 0 24 24" fill="none" xmlns="http://www.w3.org/2000/svg">
<g clip-path="url(#clip0_31_9479)">
<path d="M0 0H24V24H0V0Z" fill="#7859E5"/>
<path d="M15.8572 12.8574C15.6478 13.7076 15.1614 14.4639 14.4747 15.0071C13.7879 15.5503 12.9399 15.8494 12.0643 15.8574H6.85718V18.8574H12.0643C13.7327 18.8548 15.3429 18.2441 16.5933 17.1396C17.8438 16.0351 18.6486 14.5126 18.8572 12.8574H15.8572ZM6.85718 5.14307H12.0643C13.7327 5.14562 15.3429 5.75634 16.5933 6.86082C17.8438 7.9653 18.6486 9.48778 18.8572 11.1431H15.8572C15.6478 10.2929 15.1614 9.53651 14.4747 8.99332C13.7879 8.45012 12.9399 8.15098 12.0643 8.14307H6.85718V5.14307ZM6.85718 9.85735H9.85718V11.1431H6.85718V9.85735ZM6.85718 12.8574H9.85718V14.1431H6.85718V12.8574Z" fill="white"/>
</g>
<defs>
<clipPath id="clip0_31_9479">
<rect width="24" height="24" fill="white"/>
</clipPath>
</defs>
</svg>

<svg xmlns="http://www.w3.org/2000/svg" width="24" height="24" fill="none" viewBox="0 0 24 24"><g clip-path="url(#a)"><path fill="#7859E5" d="M0 0h24v24H0z"/><path fill="#fff" d="M15.857 12.857a3.94 3.94 0 0 1-3.793 3H6.857v3h5.207a6.86 6.86 0 0 0 6.793-6zm-9-7.714h5.207a6.86 6.86 0 0 1 6.793 6h-3a3.944 3.944 0 0 0-3.793-3H6.857zm0 4.714h3v1.286h-3zm0 3h3v1.286h-3z"/></g><defs><clipPath id="a"><path fill="#fff" d="M0 0h24v24H0z"/></clipPath></defs></svg>
